X: 618
T: Tiao cai
%%abc-version 2.0
%%abcx-abcm2ps-target-version 5.9.1 (29 Sep 2008)
%%abc-creator hum2abc beta
%%abcx-conversion-date 2013/10/02 07:52:30
%%abc-edited-by Helmut Schaffrath
%%humdrum-veritas 1360252663
%%humdrum-veritas-data 3601996660
%%continueall 1
%%barnumbers 0
L: 1/16
M: 2/4
K: G
d2 d A d2 d A [I:setbarnb 1]| 
d A d e c E D z | 
A2 A B d2 e d | 
A2 c2 c E D z | 
c c2 A c A G E | 
D8 | 
z4d2 d A | 
d A d e c E D z | 
A2 A B d2 e d | 
A2 c2 c E D z | 
c c c d A G E G | 
D8 |]  



